X:4787
T:Old Gorman's Reel
O:england
M:C|
L:1/8
R:reel
D:Noel Hill: The Irish Concertina
H:Similar to "Long Strand", #165, #531
K:Edor
BE~E2 B2ed|(3Bcd AF DEFA|BE~E2 B2ed|(3Bcd Ad Beed|
BE~E2 e2ed|(3Bcd AF DEFA|Bd~d2 Beec|dBAF GABc||
d2ad bdad|d2ad edBc|d2ad bdad|BdAF FEE2|
d2ad bdad|d2ad feed|f2ef d2cd|BcBA Beed||


